!!!COM: Anon.
!!!OTL: Song of the Goose
!!!ODT: <1918//
!!!MPN: Marolipa [Buffalo Bull Head, Ben Benson]
!!!MLC: Fort Berthold Reservation, North Dakota, United States of America
!! Song was recorded during either the summer of 1912, 1915, or 1918.
!!!AGN: monody
!!!AST: Songs Connected With Eagle Catching
!!!AMT: irregular
!!!RWG: Transcribed pitches, durations, and meters are only approximate.
!! Drum not recorded.
**kern
*ICvox
*Imale
*clefF4
*k[b-e-a-d-]
*M3/4
*MM100
=1-
8f
8f
8f
8f
8c
8c
=2
8f
8c
8c
8c
8A-
8A-
=3
8c
8A-
8A-
8A-
4A-
=4
8c
8c
8c
8c
8c
8c
=5
8e-
8e-
8e-
8e-
8A-
8A-
*M2/4
=6
8c
8A-
8A-
8A-
=7
4A-
4F
*M3/4
=8
8c
8A-
8A-
8A-
8c
8c
=9
8A-
8A-
4A-
4F
*M2/4
=10
4A-
8F
8F
=11
8A-
8F
4F
=12
2F
==
*-
!!!CNT: Mandan
!!!TXO: Mandan
!!!OCY: United States
!!!OCL: Frances Densmore
!!!YOR: Frances Densmore, "Mandan and Hidatsa Music",
!!!YOR: Bulletin 80, page 78, No. 28
!!!PPR: Smithsonian Institution, Bureau of American Ethnology
!!!PPR: Government Printing Office
!!!PDT: 1923
!!!PPP: Washington, DC, United States of America
!!!YEC: Electronic Copyright 2000 David Huron
!!!YER: August 2000
!!!YEN: United States of America
!!!ENC: David Huron
!!!RDT: August 16, 2000
!!!EEV: Release 1.0
!!!AIN: tom, vox
